X: 724
T: Lantern in the Ditch
B: jims roots
M:4/4
L:1/8
Q: 1/4=100
K:D
V:1 
%Q:180
DE |: "D"F2 A2 A2 FE | F2 A2 FEDB, | A,B,DE D2 fe | "A"dBAF "D"D2 DE |
      "D"F2 A2 A2 FE | F2 A2 FEDB, | A,B,DE D2 fe |[1 "A"dBAF "D"D2 DE :|[2 "A"dBAF "D"D2 fg ||
|: "D"a2 ab a2 fg | abaf efde | faab a2 ba | "A"faec "D"d2 fg |
   "D"a2 ab a2 fg | abaf efde | faab a2 ba |[1 "A"faec "D"d2 fg :|[2 "A"faec "D"d2 AB ||
|:"D" defd e2 fe | dBAF EF D2 | Adfd efaf | "A"gfec "D"d2 AB | !
  "D"defd e2 fe | dBAF EF D2 | Adfd efaf |[1 "A"gfec "D"d2 AB :|[2  "A"gfec "D"d2 z2 |]
% abcbook-tune_id 6298c25d8afdb58d6a7646ec


% abcbook-boost 0
% abcbook-tablature 
% abcbook-transpose 
% abcbook-lastupdated 1654178399605
% abcbook-soundfonts 
% abcbook-repeats 1


